X: 2333
T: MAGIC FLUTE
R: reel, hornpipe
B: Kerr's v.2 p.37 #333
Z: 2016 John Chambers <jc:trillian.mit.edu>
M: C
L: 1/8
K: F
(cB) |\
A2f2 afcA | BBdg b2(BA) |\
G2e2 gece | fafa fdcB |\
A2cf (af)cA | B2dg (bg)dB |\
Acf2 GBe2 | f2a2 f2 :|
|: c2 |\
AFCF AFAd | c2 B4 B2 |\
GECE GEGc | B2A4 AB |\
cAFC FAcA | Bcde fdcB |\
Acf2 GBe2 | f2a2 f2 :|
